X:3014
T:Polska efter Troskari Erik Persson
B:EÖ, nr 348
S:efter Troskari Erik Persson
R:Polska
O:Västra Fors, Malungs sn, Dalarna
Z:Nils L
L:1/8
M:3/4
%%tuplets 0 0 1
K:D
A2 a>a a>a | b>a f2 d2 | g2 b>a g>f | Pf>e e>c A2 |
A2 {/g}a>a a>a | ba f2 d2 | g2 ba gf | Pf(e/f/ e4) ::
Ac e2 {/c}d2 | Pg2 (3fgf e2 | Ac e2 d2 | g2 (3fgf ef |
ga b2 {/f}d2 | ce [dD]4 :|
(:musicend:)
(:music:)
